icons/1_Primary/BorgBase.svg

<svg xmlns="http://www.w3.org/2000/svg" viewBox="0 0 1024 1024">
   <circle cx="512" cy="512" r="512" style="fill:#263238"/>
   <path d="M768 554.7V640c0 23.6-19.1 42.7-42.7 42.7H298.7c-23.6 0-42.7-19.1-42.7-42.7v-85.3c0-23.6 19.1-42.7 42.7-42.7h426.7c23.5 0 42.6 19.1 42.6 42.7zm-42.7-71.1c9.4 0 18.7 1.9 27.4 5.5l-85.8-128.7c-7.9-11.9-21.2-19-35.5-19H392.6c-14.3 0-27.6 7.1-35.5 19L271.3 489c8.7-3.6 18-5.5 27.4-5.5h426.6zm-42.6 85.3c-15.7 0-28.4 12.7-28.4 28.4s12.7 28.4 28.4 28.4 28.4-12.7 28.4-28.4-12.7-28.4-28.4-28.4zm-85.4 0c-15.7 0-28.4 12.7-28.4 28.4s12.7 28.4 28.4 28.4 28.4-12.7 28.4-28.4c.1-15.7-12.7-28.4-28.4-28.4z" style="fill:#fff"/>
</svg>

<svg width="1024" height="1024" viewBox="0 0 1024 1024" fill="none" xmlns="http://www.w3.org/2000/svg">
<g clip-path="url(#clip0_2_1710)">
<path d="M512 1024C794.77 1024 1024 794.77 1024 512C1024 229.23 794.77 0 512 0C229.23 0 0 229.23 0 512C0 794.77 229.23 1024 512 1024Z" fill="#56595B"/>
<path d="M768 554.7V640C768 663.6 748.9 682.7 725.3 682.7H298.7C275.1 682.7 256 663.6 256 640V554.7C256 531.1 275.1 512 298.7 512H725.4C748.9 512 768 531.1 768 554.7ZM725.3 483.6C734.7 483.6 744 485.5 752.7 489.1L666.9 360.4C659 348.5 645.7 341.4 631.4 341.4H392.6C378.3 341.4 365 348.5 357.1 360.4L271.3 489C280 485.4 289.3 483.5 298.7 483.5H725.3V483.6ZM682.7 568.9C667 568.9 654.3 581.6 654.3 597.3C654.3 613 667 625.7 682.7 625.7C698.4 625.7 711.1 613 711.1 597.3C711.1 581.6 698.4 568.9 682.7 568.9ZM597.3 568.9C581.6 568.9 568.9 581.6 568.9 597.3C568.9 613 581.6 625.7 597.3 625.7C613 625.7 625.7 613 625.7 597.3C625.8 581.6 613 568.9 597.3 568.9Z" fill="white"/>
</g>
<defs>
<clipPath id="clip0_2_1710">
<rect width="1024" height="1024" fill="white"/>
</clipPath>
</defs>
</svg>
